src/assets/img/svg/turismikool.svg

<?xml version="1.0" encoding="UTF-8" standalone="no"?>
<svg
   width="31.839579"
   height="31.66136"
   viewBox="0 0 31.839579 31.66136"
   fill="none"
   version="1.1"
   id="svg76"
   sodipodi:docname="turismikool.svg"
   inkscape:version="1.2.2 (b0a8486541, 2022-12-01)"
   xmlns:inkscape="http://www.inkscape.org/namespaces/inkscape"
   xmlns:sodipodi="http://sodipodi.sourceforge.net/DTD/sodipodi-0.dtd"
   xmlns="http://www.w3.org/2000/svg"
   xmlns:svg="http://www.w3.org/2000/svg">
  <defs
     id="defs80" />
  <sodipodi:namedview
     id="namedview78"
     pagecolor="#ffffff"
     bordercolor="#000000"
     borderopacity="0.25"
     inkscape:showpageshadow="2"
     inkscape:pageopacity="0.0"
     inkscape:pagecheckerboard="0"
     inkscape:deskcolor="#d1d1d1"
     showgrid="false"
     inkscape:zoom="17.458333"
     inkscape:cx="7.3890215"
     inkscape:cy="15.809069"
     inkscape:window-width="1920"
     inkscape:window-height="1008"
     inkscape:window-x="0"
     inkscape:window-y="0"
     inkscape:window-maximized="1"
     inkscape:current-layer="svg76" />
  <g
     id="Usage=turismikool"
     transform="translate(-10.090421,-8.1940923)">
    <path
       id="Vector"
       d="m 41.93,23.94 c -0.17,0.35 -0.46,0.56 -0.8,0.73 -2.95,1.45 -5.9,2.92 -8.85,4.38 -0.18,0.09 -0.26,0.18 -0.26,0.4 0.01,1.22 0.01,2.45 0,3.67 0,0.21 0.07,0.3 0.26,0.38 1.35,0.54 2.2,1.88 2.09,3.25 -0.13,1.53 -1.13,2.69 -2.6,3.03 -1.43,0.32 -2.95,-0.4 -3.61,-1.74 -0.13,-0.28 -0.28,-0.33 -0.56,-0.33 -4.28,0 -8.56,0 -12.84,0 -1.73,0 -3.19,-1.11 -3.61,-2.73 -0.6,-2.34 1.15,-4.59 3.6,-4.59 2.72,0 5.43,0 8.15,0 0.24,0 0.48,-0.01 0.71,-0.07 0.71,-0.2 1.2,-0.91 1.14,-1.63 -0.07,-0.8 -0.64,-1.41 -1.41,-1.5 -0.14,-0.02 -0.29,-0.02 -0.43,-0.02 -1.99,0 -3.98,-0.01 -5.97,0 -0.54,0 -0.89,-0.19 -1.16,-0.66 -1.52,-2.6 -3.06,-5.19 -4.58,-7.79 -1.19,-2.04 -1.48,-4.18 -0.59,-6.4 1.11,-2.77996 4.04,-4.45996 6.99,-4.06996 2.98,0.4 5.35,2.74996 5.73,5.70996 0.22,1.72 -0.18,3.31 -1.06,4.79 -1.24,2.06 -2.47,4.12 -3.7,6.18 -0.06,0.1 -0.12,0.21 -0.21,0.37 0.17,0 0.29,0 0.41,0 1.54,0 3.09,-0.03 4.63,0.03 1.82,0.08 3.24,1.66 3.22,3.47 -0.02,1.87 -1.5,3.42 -3.36,3.44 -2.78,0.03 -5.56,0 -8.33,0.02 -0.26,0 -0.52,0.02 -0.77,0.1 -0.83,0.25 -1.37,1.1 -1.25,1.92 0.14,0.93 0.85,1.58 1.79,1.58 3.64,0 7.28,0 10.91,0 0.67,0 1.35,0 2.02,0 0.19,0 0.26,-0.06 0.32,-0.24 0.32,-1.01 0.97,-1.72 1.96,-2.11 0.22,-0.09 0.26,-0.2 0.26,-0.41 0,-4.4 0,-8.81 0,-13.21 0,-0.59 0.26,-0.97 0.76,-1.05 0.18,-0.03 0.4,0 0.57,0.07 3.26,1.29 6.52,2.6 9.77,3.9 0.32,0.13 0.51,0.37 0.66,0.66 v 0.5 z m -25.24,0.42 c 0.05,-0.07 0.08,-0.1 0.1,-0.13 1.32,-2.2 2.64,-4.41 3.95,-6.61 0.42,-0.7 0.66,-1.46 0.75,-2.28 0.24,-2.31 -1.17,-4.45 -3.38,-5.1 -2.21,-0.65996 -4.59,0.34 -5.62,2.42 -0.85,1.71 -0.66,3.4 0.27,5.02 0.92,1.61 1.88,3.2 2.82,4.79 0.37,0.62 0.73,1.25 1.12,1.91 z m 15.36,-3.25 v 5.98 c 2.23,-1.11 4.42,-2.2 6.67,-3.31 -2.25,-0.9 -4.45,-1.78 -6.67,-2.67 z m -2.38,15.43 c 0,0.79 0.63,1.43 1.41,1.43 0.78,0 1.45,-0.66 1.44,-1.44 0,-0.78 -0.65,-1.41 -1.43,-1.41 -0.79,0 -1.42,0.63 -1.42,1.42 z"
       fill="currentColor" />
    <path
       id="Vector_2"
       d="m 16.7,17.87 c -1.63,0 -2.95,-1.3 -2.95,-2.93 0,-1.63 1.3,-2.95 2.93,-2.95 1.63,0 2.95,1.3 2.96,2.93 0.01,1.62 -1.31,2.95 -2.93,2.96 z m 0,-4.02 c -0.61,0 -1.09,0.46 -1.09,1.07 0,0.61 0.48,1.09 1.08,1.09 0.59,0 1.07,-0.47 1.08,-1.06 0.02,-0.6 -0.47,-1.09 -1.07,-1.1 z"
       fill="currentColor" />
  </g>
</svg>

<svg width="48" height="48" viewBox="0 0 48 48" fill="none" xmlns="http://www.w3.org/2000/svg">
<g id="Usage=turismikool">
<path id="Vector" d="M41.93 23.94C41.76 24.29 41.47 24.5 41.13 24.67C38.18 26.12 35.23 27.59 32.28 29.05C32.1 29.14 32.02 29.23 32.02 29.45C32.03 30.67 32.03 31.9 32.02 33.12C32.02 33.33 32.09 33.42 32.28 33.5C33.63 34.04 34.48 35.38 34.37 36.75C34.24 38.28 33.24 39.44 31.77 39.78C30.34 40.1 28.82 39.38 28.16 38.04C28.03 37.76 27.88 37.71 27.6 37.71C23.32 37.71 19.04 37.71 14.76 37.71C13.03 37.71 11.57 36.6 11.15 34.98C10.55 32.64 12.3 30.39 14.75 30.39C17.47 30.39 20.18 30.39 22.9 30.39C23.14 30.39 23.38 30.38 23.61 30.32C24.32 30.12 24.81 29.41 24.75 28.69C24.68 27.89 24.11 27.28 23.34 27.19C23.2 27.17 23.05 27.17 22.91 27.17C20.92 27.17 18.93 27.16 16.94 27.17C16.4 27.17 16.05 26.98 15.78 26.51C14.26 23.91 12.72 21.32 11.2 18.72C10.01 16.68 9.72 14.54 10.61 12.32C11.72 9.54004 14.65 7.86004 17.6 8.25004C20.58 8.65004 22.95 11 23.33 13.96C23.55 15.68 23.15 17.27 22.27 18.75C21.03 20.81 19.8 22.87 18.57 24.93C18.51 25.03 18.45 25.14 18.36 25.3C18.53 25.3 18.65 25.3 18.77 25.3C20.31 25.3 21.86 25.27 23.4 25.33C25.22 25.41 26.64 26.99 26.62 28.8C26.6 30.67 25.12 32.22 23.26 32.24C20.48 32.27 17.7 32.24 14.93 32.26C14.67 32.26 14.41 32.28 14.16 32.36C13.33 32.61 12.79 33.46 12.91 34.28C13.05 35.21 13.76 35.86 14.7 35.86C18.34 35.86 21.98 35.86 25.61 35.86C26.28 35.86 26.96 35.86 27.63 35.86C27.82 35.86 27.89 35.8 27.95 35.62C28.27 34.61 28.92 33.9 29.91 33.51C30.13 33.42 30.17 33.31 30.17 33.1C30.17 28.7 30.17 24.29 30.17 19.89C30.17 19.3 30.43 18.92 30.93 18.84C31.11 18.81 31.33 18.84 31.5 18.91C34.76 20.2 38.02 21.51 41.27 22.81C41.59 22.94 41.78 23.18 41.93 23.47V23.97V23.94ZM16.69 24.36C16.74 24.29 16.77 24.26 16.79 24.23C18.11 22.03 19.43 19.82 20.74 17.62C21.16 16.92 21.4 16.16 21.49 15.34C21.73 13.03 20.32 10.89 18.11 10.24C15.9 9.58004 13.52 10.58 12.49 12.66C11.64 14.37 11.83 16.06 12.76 17.68C13.68 19.29 14.64 20.88 15.58 22.47C15.95 23.09 16.31 23.72 16.7 24.38L16.69 24.36ZM32.05 21.11V27.09C34.28 25.98 36.47 24.89 38.72 23.78C36.47 22.88 34.27 22 32.05 21.11ZM29.67 36.54C29.67 37.33 30.3 37.97 31.08 37.97C31.86 37.97 32.53 37.31 32.52 36.53C32.52 35.75 31.87 35.12 31.09 35.12C30.3 35.12 29.67 35.75 29.67 36.54Z" fill="currentColor"/>
<path id="Vector_2" d="M16.7 17.87C15.07 17.87 13.75 16.57 13.75 14.94C13.75 13.31 15.05 11.99 16.68 11.99C18.31 11.99 19.63 13.29 19.64 14.92C19.65 16.54 18.33 17.87 16.71 17.88L16.7 17.87ZM16.7 13.85C16.09 13.85 15.61 14.31 15.61 14.92C15.61 15.53 16.09 16.01 16.69 16.01C17.28 16.01 17.76 15.54 17.77 14.95C17.79 14.35 17.3 13.86 16.7 13.85Z" fill="currentColor"/>
</g>
</svg>
